icon-themes/elementary_svg/cmd/32/managelanguage.svg

<svg height="32" width="32" xmlns="http://www.w3.org/2000/svg" xmlns:xlink="http://www.w3.org/1999/xlink"><radialGradient id="a" cx="20.930695" cy="8.449767" gradientTransform="matrix(0 1.0786108 -1.1125155 -.00000002 21.400545 -36.816073)" gradientUnits="userSpaceOnUse" r="19.99999"><stop offset="0" stop-color="#f4f4f4"/><stop offset="1" stop-color="#d0d0d0"/></radialGradient><linearGradient id="b" gradientUnits="userSpaceOnUse" x1="25.058096" x2="25.058096" y1="47.027729" y2="39.999443"><stop offset="0" stop-color="#181818" stop-opacity="0"/><stop offset=".5" stop-color="#181818"/><stop offset="1" stop-color="#181818" stop-opacity="0"/></linearGradient><linearGradient id="c"><stop offset="0" stop-color="#181818"/><stop offset="1" stop-color="#181818" stop-opacity="0"/></linearGradient><radialGradient id="d" cx="4.992979" cy="43.5" gradientTransform="matrix(2.003784 0 0 1.4 -20.01187 -104.4)" gradientUnits="userSpaceOnUse" r="2.5" xlink:href="#c"/><radialGradient id="e" cx="4.992979" cy="43.5" gradientTransform="matrix(2.003784 0 0 1.4 27.98813 -17.4)" gradientUnits="userSpaceOnUse" r="2.5" xlink:href="#c"/><linearGradient id="f" gradientUnits="userSpaceOnUse" x1="12.001242" x2="12.001242" y1="11.965776" y2="28.031773"><stop offset="0" stop-color="#fff"/><stop offset=".00170911" stop-color="#fff" stop-opacity=".235294"/><stop offset="1" stop-color="#fff" stop-opacity=".156863"/><stop offset="1" stop-color="#fff" stop-opacity=".392157"/></linearGradient><linearGradient id="g" gradientUnits="userSpaceOnUse" x1="20.001242" x2="20.001242" y1="3.816477" y2="20.031774"><stop offset="0" stop-color="#fff"/><stop offset=".02196701" stop-color="#fff" stop-opacity=".235294"/><stop offset=".99660015" stop-color="#fff" stop-opacity=".156863"/><stop offset="1" stop-color="#fff" stop-opacity=".392157"/></linearGradient><linearGradient id="h" gradientTransform="matrix(1 0 0 .75972208 -40.880743 7.160571)" gradientUnits="userSpaceOnUse" x1="30.643436" x2="30.643436" y1="3.915791" y2="30.093096"><stop offset="0" stop-opacity=".272059"/><stop offset="1" stop-opacity=".367647"/></linearGradient><linearGradient id="i" gradientUnits="userSpaceOnUse" x1="24.104811" x2="24.104811" y1="2.63504" y2="21.279362"><stop offset="0" stop-color="#64baff"/><stop offset="1" stop-color="#3689e6"/></linearGradient><g opacity=".3" transform="matrix(.5789476 0 0 .42857134 -1.894738 10.857146)"><path d="m38 40h5v7h-5z" fill="url(#e)"/><path d="m-10-47h5v7h-5z" fill="url(#d)" transform="scale(-1)"/><path d="m10 40h28v7.000001h-28z" fill="url(#b)"/></g><rect fill="url(#a)" height="18" rx=".540698" transform="scale(1 -1)" width="18" x="3" y="-29"/><path d="m10.09375 14.25c-.0045.05451-.0085.197361-.03125.40625-.04088.331525-.07105.612154-.09375.84375l-.03125.4375-.03125.3125c-.513171.03634-1.066423.06251-1.625.0625-.3723891.000009-.7435326-.03524-1.125-.0625l.09375.96875c.1453199.0091.3485177.03126.59375.03125.631238.000008 1.273927-.03925 1.96875-.09375-.06812.8129-.08013 1.534098-.09375 2.15625-.458675.249777-.825816.49223-1.09375.6875-1.4032638 1.058128-2.1250009 2.218817-2.125 3.53125-.0000009.967298.4234818 1.46875 1.25 1.46875.685734 0 1.410934-.294252 2.1875-.84375.0772.48592.133539.810344.15625.9375l1-.375c-.118079-.445047-.177884-.894699-.21875-1.3125.595594-.560968 1.120909-1.194368 1.59375-1.90625h-.96875c-.05703 0-.101878-.02217-.15625-.03125-.189143.262264-.381039.512942-.59375.75-.01811-.269625-.0209-.741498-.03125-1.09375-.137099-.171107-.21875-.387697-.21875-.625v-6.21875zm-.40625 6.03125c.01362 1.153494.05688 2.085895.125 2.8125-.667575.613077-1.289175.937501-1.875.9375-.2679389.000001-.4062519-.169023-.40625-.46875-.0000019-.06358-.017628-.110835-.03125-.15625.013622-.03179.031248-.09267.03125-.15625.054494-.703899.4296394-1.420556 1.15625-2.15625.340594-.358758.682105-.621761 1-.8125zm6.6875 1.21875c.01162.102858.03125.203244.03125.3125-.000011.89918-.44058 1.611296-1.3125 2.15625-.685745.431425-1.601059.721135-2.75.84375l.59375.9375c1.312428-.186194 2.339884-.56642 3.09375-1.125.967286-.717524 1.468738-1.66809 1.46875-2.8125-.000001-.108478-.02233-.208852-.03125-.3125z" fill="#666"/><path d="m11.0625 2c-1.1232912 0-2.0625.939209-2.0625 2.0625v17.875c0 1.123291.939209 2.0625 2.0625 2.0625h17.875c1.123291 0 2.0625-.939209 2.0625-2.0625v-17.875c0-1.123291-.939209-2.0625-2.0625-2.0625z" opacity=".05"/><rect height="20" opacity=".15" rx="1.052632" width="20" x="10" y="3"/><path d="m3.501249 11.498774h17v17h-17z" fill="none" stroke="url(#f)" stroke-linecap="round" stroke-linejoin="round"/><rect fill="none" height="19.000002" rx="1" stroke="url(#h)" stroke-linecap="round" stroke-linejoin="round" width="19.000002" x="2.499998" y="10.500026"/><rect fill="url(#i)" height="19.000002" rx="1" width="19.000002" x="10.499998" y="2.500026"/><path d="m11.501249 3.498774h17v17h-17z" fill="none" opacity=".5" stroke="url(#g)" stroke-linecap="round" stroke-linejoin="round"/><rect fill="none" height="19.000002" opacity=".5" rx="1" stroke="#002e99" stroke-linecap="round" stroke-linejoin="round" width="19.000002" x="10.499998" y="2.500026"/><path d="m19.03125 7a1.0015805 1.0015805 0 0 0 -.84375.65625l-3.75 10a1.0015805 1.0015805 0 0 0 .9375 1.34375h1.71875a1.0015805 1.0015805 0 0 0 .9375-.6875l.78125-2.3125h2.34375l.78125 2.3125a1.0015805 1.0015805 0 0 0 .9375.6875h1.75a1.0015805 1.0015805 0 0 0 .9375-1.34375l-3.75-10a1.0015805 1.0015805 0 0 0 -.9375-.65625h-1.75a1.0015805 1.0015805 0 0 0 -.09375 0zm.96875 5.65625.09375.34375h-.21875z" fill="#002e99" fill-opacity=".631373" opacity=".05"/><path d="m22.881455 18-1.047697-3h-3.696762l-1.032077 3c-.572204 0-1.144408 0-1.716612 0 1.242046-3.333316 2.484092-6.666631 3.726138-9.999947h1.771107c1.242046 3.333316 2.484093 6.666631 3.726139 9.999947-.576746 0-1.153491 0-1.730236 0zm-1.390874-4-1.490581-4.3482555-1.520766 4.3482555z" fill="#002e99" fill-opacity=".631373" opacity=".3"/><path d="m22.881455 17-1.047697-3h-3.696762l-1.032077 3c-.572204 0-1.144408 0-1.716612 0 1.242046-3.333316 2.484092-6.666631 3.726138-9.9999465h1.771107c1.242046 3.3333155 2.484093 6.6666305 3.726139 9.9999465-.576746 0-1.153491 0-1.730236 0zm-1.390874-4-1.490581-4.348255-1.520766 4.348255z" fill="#fff"/></svg>

<?xml version="1.0" encoding="UTF-8" standalone="no"?>
<svg
   xmlns:dc="http://purl.org/dc/elements/1.1/"
   xmlns:cc="http://creativecommons.org/ns#"
   xmlns:rdf="http://www.w3.org/1999/02/22-rdf-syntax-ns#"
   xmlns:svg="http://www.w3.org/2000/svg"
   xmlns="http://www.w3.org/2000/svg"
   xmlns:xlink="http://www.w3.org/1999/xlink"
   xmlns:sodipodi="http://sodipodi.sourceforge.net/DTD/sodipodi-0.dtd"
   xmlns:inkscape="http://www.inkscape.org/namespaces/inkscape"
   version="1.1"
   width="32"
   height="32"
   id="svg4715"
   inkscape:version="0.92.3 (unknown)"
   sodipodi:docname="managelanguage.svg"
   inkscape:export-filename="/home/rizmut/Dokumen/Rizmut/Github/libreoffice-style-elementary/images_elementary/cmd/32/managelanguage.png"
   inkscape:export-xdpi="96"
   inkscape:export-ydpi="96">
  <sodipodi:namedview
     pagecolor="#ffffff"
     bordercolor="#666666"
     borderopacity="1"
     objecttolerance="10"
     gridtolerance="10"
     guidetolerance="10"
     inkscape:pageopacity="0"
     inkscape:pageshadow="2"
     inkscape:window-width="1366"
     inkscape:window-height="706"
     id="namedview254"
     inkscape:document-rotation="0"
     showgrid="false"
     inkscape:zoom="7.34375"
     inkscape:cx="18.897655"
     inkscape:cy="16.365734"
     inkscape:window-x="0"
     inkscape:window-y="0"
     inkscape:window-maximized="1"
     inkscape:current-layer="svg4715" />
  <defs
     id="defs4717">
    <linearGradient
       inkscape:collect="always"
       id="linearGradient871">
      <stop
         style="stop-color:#64baff;stop-opacity:1"
         offset="0"
         id="stop867" />
      <stop
         style="stop-color:#3689e6;stop-opacity:1"
         offset="1"
         id="stop869" />
    </linearGradient>
    <linearGradient
       id="linearGradient2867-449-88-871-390-598-476-591-434-148-57-177-641-289-620-227-114-444-680-744-4-8-69-5-4-8-426-2-9-1-4-965">
      <stop
         id="stop4036"
         style="stop-color:#f4f4f4;stop-opacity:1"
         offset="0" />
      <stop
         id="stop4040"
         style="stop-color:#d0d0d0;stop-opacity:1"
         offset="1" />
    </linearGradient>
    <radialGradient
       cx="20.930695"
       cy="8.4497671"
       r="19.99999"
       fx="20.930695"
       fy="8.4497671"
       id="radialGradient3035"
       xlink:href="#linearGradient2867-449-88-871-390-598-476-591-434-148-57-177-641-289-620-227-114-444-680-744-4-8-69-5-4-8-426-2-9-1-4-965"
       gradientUnits="userSpaceOnUse"
       gradientTransform="matrix(0,1.0786108,-1.1125155,-1.9872127e-8,21.400545,-36.816073)" />
    <linearGradient
       id="linearGradient3702-501-757-1">
      <stop
         offset="0"
         style="stop-color:#181818;stop-opacity:0"
         id="stop2895-2" />
      <stop
         offset="0.5"
         style="stop-color:#181818;stop-opacity:1"
         id="stop2897-89" />
      <stop
         offset="1"
         style="stop-color:#181818;stop-opacity:0"
         id="stop2899-36" />
    </linearGradient>
    <linearGradient
       gradientUnits="userSpaceOnUse"
       xlink:href="#linearGradient3702-501-757-1"
       id="linearGradient3086-8"
       y2="39.999443"
       x2="25.058096"
       y1="47.027729"
       x1="25.058096" />
    <linearGradient
       id="linearGradient3688-464-309-7-6">
      <stop
         offset="0"
         style="stop-color:#181818;stop-opacity:1"
         id="stop2889-75" />
      <stop
         offset="1"
         style="stop-color:#181818;stop-opacity:0"
         id="stop2891-4-9" />
    </linearGradient>
    <radialGradient
       gradientTransform="matrix(2.003784,0,0,1.4,-20.01187,-104.4)"
       gradientUnits="userSpaceOnUse"
       xlink:href="#linearGradient3688-464-309-7-6"
       id="radialGradient3084-4"
       fy="43.5"
       fx="4.9929786"
       r="2.5"
       cy="43.5"
       cx="4.9929786" />
    <linearGradient
       id="linearGradient3688-166-749-9">
      <stop
         offset="0"
         style="stop-color:#181818;stop-opacity:1"
         id="stop2883-2" />
      <stop
         offset="1"
         style="stop-color:#181818;stop-opacity:0"
         id="stop2885-2" />
    </linearGradient>
    <radialGradient
       gradientTransform="matrix(2.003784,0,0,1.4,27.98813,-17.4)"
       gradientUnits="userSpaceOnUse"
       xlink:href="#linearGradient3688-166-749-9"
       id="radialGradient3082-6"
       fy="43.5"
       fx="4.9929786"
       r="2.5"
       cy="43.5"
       cx="4.9929786" />
    <linearGradient
       id="linearGradient3924-64">
      <stop
         offset="0"
         style="stop-color:#ffffff;stop-opacity:1"
         id="stop3926-3-6" />
      <stop
         offset="0.00170911"
         style="stop-color:#ffffff;stop-opacity:0.23529412"
         id="stop3928-0" />
      <stop
         offset="1"
         style="stop-color:#ffffff;stop-opacity:0.15686275"
         id="stop3930-3-59" />
      <stop
         offset="1"
         style="stop-color:#ffffff;stop-opacity:0.39215687"
         id="stop3932-0" />
    </linearGradient>
    <linearGradient
       xlink:href="#linearGradient3924-64"
       id="linearGradient3357"
       gradientUnits="userSpaceOnUse"
       gradientTransform="matrix(0.45945947,0,0,0.45945947,0.9742189,8.9717503)"
       x1="23.99999"
       y1="6.5164104"
       x2="23.99999"
       y2="41.483578" />
    <linearGradient
       xlink:href="#linearGradient3924-64-8"
       id="linearGradient3357-4"
       gradientUnits="userSpaceOnUse"
       gradientTransform="matrix(0.45945947,0,0,0.45945947,8.974219,0.9717506)"
       x1="23.99999"
       y1="6.191463"
       x2="23.99999"
       y2="41.483578" />
    <linearGradient
       id="linearGradient3924-64-8">
      <stop
         offset="0"
         style="stop-color:#ffffff;stop-opacity:1"
         id="stop3926-3-6-3" />
      <stop
         offset="0.02196701"
         style="stop-color:#ffffff;stop-opacity:0.23529412"
         id="stop3928-0-2" />
      <stop
         offset="0.99660015"
         style="stop-color:#ffffff;stop-opacity:0.15686275"
         id="stop3930-3-59-7" />
      <stop
         offset="1"
         style="stop-color:#ffffff;stop-opacity:0.39215687"
         id="stop3932-0-3" />
    </linearGradient>
    <linearGradient
       xlink:href="#linearGradient4549-5"
       id="linearGradient4287-3"
       gradientUnits="userSpaceOnUse"
       gradientTransform="matrix(1,0,0,0.75972208,-40.880743,7.1605714)"
       x1="30.643436"
       y1="3.915791"
       x2="30.643436"
       y2="30.093096" />
    <linearGradient
       id="linearGradient4549-5">
      <stop
         id="stop4551-9"
         style="stop-color:#000000;stop-opacity:0.27205881"
         offset="0" />
      <stop
         id="stop4553-0"
         style="stop-color:#000000;stop-opacity:0.36764705"
         offset="1" />
    </linearGradient>
    <linearGradient
       inkscape:collect="always"
       xlink:href="#linearGradient871"
       id="linearGradient873"
       x1="24.104811"
       y1="2.6350396"
       x2="24.104811"
       y2="21.279362"
       gradientUnits="userSpaceOnUse" />
  </defs>
  <metadata
     id="metadata4720">
    <rdf:RDF>
      <cc:Work
         rdf:about="">
        <dc:format>image/svg+xml</dc:format>
        <dc:type
           rdf:resource="http://purl.org/dc/dcmitype/StillImage" />
        <dc:title></dc:title>
      </cc:Work>
    </rdf:RDF>
  </metadata>
  <g
     transform="matrix(0.55,0,0,0.3333336,-1.2000011,15.33333)"
     id="g2036-4"
     style="display:inline;opacity:0.75">
    <g
       transform="matrix(1.052632,0,0,1.285713,-1.263158,-13.42854)"
       id="g3712-8"
       style="opacity:0.40000000000000002">
      <rect
         width="5"
         height="7"
         x="38"
         y="40"
         id="rect2801-6"
         style="fill:url(#radialGradient3082-6);fill-opacity:1;stroke:none" />
      <rect
         width="5"
         height="7"
         x="-10"
         y="-47"
         transform="scale(-1,-1)"
         id="rect3696-20"
         style="fill:url(#radialGradient3084-4);fill-opacity:1;stroke:none" />
      <rect
         width="28"
         height="7.0000005"
         x="10"
         y="40"
         id="rect3700-5"
         style="fill:url(#linearGradient3086-8);fill-opacity:1;stroke:none" />
    </g>
  </g>
  <rect
     width="18"
     height="18"
     rx="0.54069757"
     ry="0.54069757"
     x="3"
     y="-29"
     transform="scale(1,-1)"
     id="rect5505"
     style="color:#000000;fill:url(#radialGradient3035);fill-opacity:1;fill-rule:nonzero;stroke:none;stroke-width:1;marker:none;visibility:visible;display:inline;overflow:visible;enable-background:accumulate" />
  <path
     style="font-size:13.9508791px;font-style:normal;font-variant:normal;font-weight:600;font-stretch:normal;text-align:start;line-height:125%;letter-spacing:0px;word-spacing:0px;writing-mode:lr-tb;text-anchor:start;fill:#666666;fill-opacity:1;stroke:none;font-family:Open Sans;-inkscape-font-specification:Open Sans Semi-Bold"
     d="m 10.09375,14.25 c -0.0045,0.05451 -0.0085,0.197361 -0.03125,0.40625 C 10.02162,14.987775 9.99145,15.268404 9.96875,15.5 L 9.9375,15.9375 9.90625,16.25 c -0.513171,0.03634 -1.066423,0.06251 -1.625,0.0625 -0.3723891,9e-6 -0.7435326,-0.03524 -1.125,-0.0625 L 7.25,17.21875 c 0.1453199,0.0091 0.3485177,0.03126 0.59375,0.03125 0.631238,8e-6 1.273927,-0.03925 1.96875,-0.09375 C 9.74438,17.96915 9.73237,18.690348 9.71875,19.3125 9.260075,19.562277 8.892934,19.80473 8.625,20 7.2217362,21.058128 6.4999991,22.218817 6.5,23.53125 6.4999991,24.498548 6.9234818,25 7.75,25 c 0.685734,0 1.410934,-0.294252 2.1875,-0.84375 0.0772,0.48592 0.133539,0.810344 0.15625,0.9375 l 1,-0.375 C 10.975671,24.273703 10.915866,23.824051 10.875,23.40625 11.470594,22.845282 11.995909,22.211882 12.46875,21.5 L 11.5,21.5 c -0.05703,0 -0.101878,-0.02217 -0.15625,-0.03125 -0.189143,0.262264 -0.381039,0.512942 -0.59375,0.75 C 10.73189,21.949125 10.7291,21.477252 10.71875,21.125 10.581651,20.953893 10.5,20.737303 10.5,20.5 l 0,-6.21875 L 10.09375,14.25 z M 9.6875,20.28125 c 0.01362,1.153494 0.05688,2.085895 0.125,2.8125 -0.667575,0.613077 -1.289175,0.937501 -1.875,0.9375 -0.2679389,1e-6 -0.4062519,-0.169023 -0.40625,-0.46875 C 7.5312481,23.49892 7.513622,23.451665 7.5,23.40625 7.513622,23.37446 7.531248,23.31358 7.53125,23.25 7.585744,22.546101 7.9608894,21.829444 8.6875,21.09375 c 0.340594,-0.358758 0.682105,-0.621761 1,-0.8125 z M 16.375,21.5 c 0.01162,0.102858 0.03125,0.203244 0.03125,0.3125 -1.1e-5,0.89918 -0.44058,1.611296 -1.3125,2.15625 -0.685745,0.431425 -1.601059,0.721135 -2.75,0.84375 L 12.9375,25.75 c 1.312428,-0.186194 2.339884,-0.56642 3.09375,-1.125 0.967286,-0.717524 1.468738,-1.66809 1.46875,-2.8125 -1e-6,-0.108478 -0.02233,-0.208852 -0.03125,-0.3125 l -1.09375,0 z"
     id="text4533-9" />
  <path
     style="opacity:0.05;color:#000000;fill:#000000;fill-opacity:1;fill-rule:nonzero;stroke:none;stroke-width:0.99999994000000003;marker:none;visibility:visible;display:inline;overflow:visible;enable-background:accumulate"
     id="path4457"
     d="M 11.0625,2 C 9.9392088,2 9,2.939209 9,4.0625 l 0,17.875 C 9,23.060791 9.939209,24 11.0625,24 l 17.875,0 C 30.060791,24 31,23.060791 31,21.9375 L 31,4.0625 C 31,2.939209 30.060791,2 28.9375,2 l -17.875,0 z" />
  <rect
     width="20"
     height="20"
     rx="1.0526315"
     ry="1.0526315"
     x="10"
     y="3"
     id="rect5505-21-8-5-7"
     style="color:#000000;fill:#000000;fill-opacity:1;fill-rule:nonzero;stroke:none;stroke-width:0.99999994000000003;marker:none;visibility:visible;display:inline;overflow:visible;enable-background:accumulate;opacity:0.15" />
  <rect
     width="17"
     height="17"
     x="3.5012493"
     y="11.498774"
     id="rect6741-9"
     style="opacity:1;fill:none;stroke:url(#linearGradient3357);stroke-width:0.99999988;stroke-linecap:round;stroke-linejoin:round;stroke-miterlimit:4;stroke-opacity:1;stroke-dasharray:none;stroke-dashoffset:0" />
  <rect
     width="19.000002"
     height="19.000002"
     rx="1"
     ry="1"
     x="2.4999981"
     y="10.500026"
     id="rect5505-21-8-1"
     style="opacity:1;color:#000000;fill:none;stroke:url(#linearGradient4287-3);stroke-width:1;stroke-linecap:round;stroke-linejoin:round;stroke-miterlimit:4;stroke-opacity:1;stroke-dasharray:none;stroke-dashoffset:0;marker:none;visibility:visible;display:inline;overflow:visible;enable-background:accumulate" />
  <rect
     width="19.000002"
     height="19.000002"
     rx="1"
     ry="1"
     x="10.499998"
     y="2.5000257"
     id="rect5505-21-8-5"
     style="color:#000000;fill:url(#linearGradient873);fill-opacity:1;fill-rule:nonzero;stroke:none;stroke-width:1;marker:none;visibility:visible;display:inline;overflow:visible;enable-background:accumulate" />
  <rect
     width="17"
     height="17"
     x="11.501249"
     y="3.4987736"
     id="rect6741-9-9"
     style="opacity:0.5;fill:none;stroke:url(#linearGradient3357-4);stroke-width:0.99999988;stroke-linecap:round;stroke-linejoin:round;stroke-miterlimit:4;stroke-opacity:1;stroke-dasharray:none;stroke-dashoffset:0" />
  <rect
     width="19.000002"
     height="19.000002"
     rx="1"
     ry="1"
     x="10.499998"
     y="2.5000257"
     id="rect5505-21-8-1-2"
     style="opacity:0.5;color:#000000;fill:#000000;stroke:#002e99;stroke-width:1;stroke-linecap:round;stroke-linejoin:round;stroke-miterlimit:4;stroke-opacity:1;stroke-dasharray:none;stroke-dashoffset:0;marker:none;visibility:visible;display:inline;overflow:visible;enable-background:accumulate;clip-rule:nonzero;isolation:auto;mix-blend-mode:normal;color-interpolation:sRGB;color-interpolation-filters:linearRGB;solid-color:#000000;solid-opacity:1;fill-opacity:0;fill-rule:nonzero;filter-blend-mode:normal;filter-gaussianBlur-deviation:0;color-rendering:auto;image-rendering:auto;shape-rendering:auto;text-rendering:auto" />
  <path
     style="font-size:13.9508791px;font-style:normal;font-variant:normal;font-weight:600;font-stretch:normal;text-align:start;line-height:125%;letter-spacing:0px;word-spacing:0px;writing-mode:lr-tb;text-anchor:start;opacity:0.05;color:#000000;fill:#002e99;fill-opacity:0.63137255;fill-rule:nonzero;stroke:none;stroke-width:0.99999994;marker:none;visibility:visible;display:inline;overflow:visible;enable-background:accumulate;font-family:Open Sans;-inkscape-font-specification:Open Sans Semi-Bold"
     id="path4698"
     d="M 19.03125,7 A 1.0015805,1.0015805 0 0 0 18.1875,7.65625 l -3.75,10 A 1.0015805,1.0015805 0 0 0 15.375,19 l 1.71875,0 a 1.0015805,1.0015805 0 0 0 0.9375,-0.6875 L 18.8125,16 l 2.34375,0 0.78125,2.3125 A 1.0015805,1.0015805 0 0 0 22.875,19 l 1.75,0 a 1.0015805,1.0015805 0 0 0 0.9375,-1.34375 l -3.75,-10 A 1.0015805,1.0015805 0 0 0 20.875,7 l -1.75,0 A 1.0015805,1.0015805 0 0 0 19.03125,7 z M 20,12.65625 20.09375,13 19.875,13 20,12.65625 z" />
  <path
     style="font-size:13.9508791px;font-style:normal;font-variant:normal;font-weight:600;font-stretch:normal;text-align:start;line-height:125%;letter-spacing:0px;word-spacing:0px;writing-mode:lr-tb;text-anchor:start;fill:#002e99;fill-opacity:0.63137255;stroke:none;font-family:Open Sans;-inkscape-font-specification:Open Sans Semi-Bold;opacity:0.3;color:#000000;fill-rule:nonzero;stroke-width:0.99999994;marker:none;visibility:visible;display:inline;overflow:visible;enable-background:accumulate"
     d="m 22.881455,18 -1.047697,-3 -3.696762,0 -1.032077,3 c -0.572204,0 -1.144408,0 -1.716612,0 1.242046,-3.333316 2.484092,-6.666631 3.726138,-9.999947 0.590369,0 1.180738,0 1.771107,0 1.242046,3.333316 2.484093,6.666631 3.726139,9.999947 -0.576746,0 -1.153491,0 -1.730236,0 z M 21.490581,14 20,9.6517445 18.479234,14 z"
     id="text4533-5" />
  <path
     style="font-size:13.9508791px;font-style:normal;font-variant:normal;font-weight:600;font-stretch:normal;text-align:start;line-height:125%;letter-spacing:0px;word-spacing:0px;writing-mode:lr-tb;text-anchor:start;fill:#ffffff;fill-opacity:1;stroke:none;font-family:Open Sans;-inkscape-font-specification:Open Sans Semi-Bold"
     d="m 22.881455,17 -1.047697,-3 -3.696762,0 -1.032077,3 c -0.572204,0 -1.144408,0 -1.716612,0 1.242046,-3.333316 2.484092,-6.666631 3.726138,-9.9999465 0.590369,0 1.180738,0 1.771107,0 C 22.127598,10.333369 23.369645,13.666684 24.611691,17 24.034945,17 23.4582,17 22.881455,17 z M 21.490581,13 20,8.651745 18.479234,13 z"
     id="text4533" />
</svg>
